X: 7301
T:Johnny I do miss you
R:Polka
O:Ireland
O:England
M:2/4
L:1/8
K:D
d>B|\
AF ED|F2 A,>E|FB AF|E2 d>B|\
AF ED|F2 A,>F|GA/G/ FE|D2 :|
DE|\
FA A/B/A/G/|FA AG|FA Bc|(d2 d)>A|\
FA A/B/A/G/|FA d>e|fe ed|(e2 e)>A|
FA A/B/A/G/|FA A>G|FA Bc|(d2 d)>B|\
AF ED|F2 A,>F|GA/G/ FE|D2|]
